X:1
T:Hartel, LM
T:Hartel, LM
T:Lowell Mason (1792-1872)
T:Public Domain Courtesy of the Cyber Hymnal™
C:Lowell Mason (1792-1872)
Z:Public Domain
Z:Courtesy of the Cyber Hymnal™
%%score ( 1 2 ) 3
L:1/8
Q:1/4=140
M:3/2
K:E
V:1 treble 
V:2 treble 
V:3 bass 
V:1
 E4 | [EG]3 [EG] [EG]2 [DF]2 [EG]2 [FA]2 | [GB]6 [EB]2 [Ec]2 [EB]2 | [EB]6 [EG]2 [EA]2 [EG]2 | %4
 [EG]6 [EG]2 [EG]2 [EG]2 | [EG]6 [CE]2 [CE]2 [CE]2 | [DF]6 [DF]2 [DF]2 [EG]2 | %7
 [EA]2 [EG]2 [EF]4 [DF]4 | E6 z2 |] %9
V:2
 E4 | x12 | x12 | x12 | x12 | x12 | x12 | x12 | E6 x2 |] %9
V:3
 [E,G,]4 | [E,B,]3 [E,B,] [E,B,]2 [A,B,]2 [G,B,]2 [F,B,]2 | [E,B,]6 [E,G,]2 [E,A,]2 [E,G,]2 | %3
 [E,G,]6 [E,B,]2 [E,C]2 [E,B,]2 | [E,B,]6 [C,C]2 [C,C]2 [C,C]2 | [C,C]6 [C,G,]2 [C,G,]2 [C,G,]2 | %6
 [B,,B,]6 [B,,B,]2 [B,,B,]2 [E,B,]2 | [A,,C]2 [E,B,]2 [B,,B,]4 [B,,A,]4 | [E,G,]6 z2 |] %9

